tools/download-figma-icons/icons/solid/together.svg

<svg width="24" height="24" viewBox="0 0 24 24" fill="none" xmlns="http://www.w3.org/2000/svg">
<path fill-rule="evenodd" clip-rule="evenodd" d="M15.2786 5.95506C15.0319 4.95384 14.1919 4.22262 13.1824 4.07937C13.8004 3.68713 14.2136 3.0009 14.2136 2.21418C14.2136 0.990964 13.2229 0.000244133 12.0005 0.000244133C10.7772 0.000244133 9.78653 0.990964 9.78653 2.21418C9.78653 3.0009 10.1998 3.68713 10.8177 4.07937C9.80678 4.22187 8.9653 4.95459 8.71931 5.95731L8.26782 7.78876C8.17258 8.17574 8.46582 8.54923 8.86406 8.54923H15.1369C15.5351 8.54923 15.8276 8.17499 15.7316 7.78801L15.2786 5.95506ZM23.5287 21.406L23.9817 23.2382C24.0777 23.6252 23.7845 23.9995 23.3862 23.9995H17.1142C16.7159 23.9995 16.4227 23.626 16.5179 23.239L16.9687 21.4083C17.2154 20.4056 18.0569 19.6729 19.0671 19.5296C18.4491 19.1366 18.0359 18.4504 18.0359 17.6637C18.0359 16.4412 19.0274 15.4505 20.2498 15.4505C21.4723 15.4505 22.4638 16.4412 22.4638 17.6637C22.4638 18.4504 22.0505 19.1366 21.4325 19.5296C22.4413 19.6736 23.2812 20.4048 23.5287 21.406ZM4.93268 19.5293C5.94214 19.6733 6.78212 20.4045 7.02886 21.4057L7.48185 23.2379C7.57784 23.6249 7.28535 23.9992 6.88712 23.9992H0.614307C0.216069 23.9992 -0.0771722 23.6257 0.0180748 23.2387L0.469561 21.408C0.715554 20.4053 1.55703 19.6725 2.568 19.5293C1.95002 19.1371 1.53678 18.4508 1.53678 17.6641C1.53678 16.4416 2.5275 15.4509 3.75071 15.4509C4.97317 15.4509 5.96389 16.4416 5.96389 17.6641C5.96389 18.4508 5.55066 19.1371 4.93268 19.5293ZM12.7169 14.7795L15.1108 16.1617C15.4701 16.3687 15.5931 16.8277 15.3853 17.1862C15.2466 17.4269 14.9946 17.5612 14.7351 17.5612C14.6076 17.5612 14.4786 17.5289 14.3609 17.4607L11.9669 16.0792L9.57225 17.4607C9.4545 17.5289 9.32551 17.5612 9.19801 17.5612C8.93927 17.5612 8.68728 17.4269 8.54778 17.1862C8.34079 16.8277 8.46378 16.3687 8.82227 16.1617L11.2169 14.7795V12.0151C11.2169 11.6004 11.5522 11.2651 11.9669 11.2651C12.3809 11.2651 12.7169 11.6004 12.7169 12.0151V14.7795Z" fill="black"/>
</svg>

<svg xmlns="http://www.w3.org/2000/svg" width="24" height="24" fill="none" viewBox="0 0 24 24"><path fill="currentColor" fill-rule="evenodd" d="M15.279 5.955a2.51 2.51 0 0 0-2.097-1.876 2.2 2.2 0 0 0 1.032-1.865 2.213 2.213 0 1 0-4.427 0c0 .787.413 1.473 1.03 1.865A2.51 2.51 0 0 0 8.72 5.957L8.268 7.79a.614.614 0 0 0 .596.76h6.273c.398 0 .69-.374.595-.761zm8.25 15.451.453 1.832a.614.614 0 0 1-.596.762h-6.272a.614.614 0 0 1-.596-.761l.45-1.83a2.52 2.52 0 0 1 2.1-1.88 2.21 2.21 0 0 1-1.032-1.865 2.214 2.214 0 0 1 4.428 0 2.21 2.21 0 0 1-1.031 1.866 2.52 2.52 0 0 1 2.096 1.876M4.933 19.529c1.01.144 1.85.875 2.096 1.877l.453 1.832a.613.613 0 0 1-.595.761H.614a.614.614 0 0 1-.596-.76l.452-1.831a2.51 2.51 0 0 1 2.098-1.879 2.2 2.2 0 0 1-1.031-1.865 2.213 2.213 0 1 1 4.427 0c0 .787-.413 1.473-1.031 1.865m7.784-4.75 2.394 1.383a.749.749 0 1 1-.75 1.299l-2.394-1.382-2.395 1.382a.75.75 0 0 1-.75-1.299l2.395-1.382v-2.765a.75.75 0 1 1 1.5 0z" clip-rule="evenodd"/></svg>
